!!!COM:	Bach, Johann Sebastian
!!!OMV:	Herr Jesu Christ, du h&ouml;chstes Gut
!!!OTL:	Herr Jesu Christ, du h&ouml;chstes Gut
**kern	**fb	**kern	**kern	**kern
*part4	*part4	*part3	*part2	*part1
*staff4	*	*staff3	*staff2	*staff1
*I"Voice	*	*I"Voice	*I"Voice	*I"Voice
*I'V	*	*I'V	*I'V	*I'V
*clefF4	*	*clefGv2	*clefG2	*clefG2
*k[f#c#]	*	*k[f#c#]	*k[f#c#]	*k[f#c#]
*M4/4	*	*M4/4	*M4/4	*M4/4
4B	.	4d	4f#	4b
=2	=2	=2	=2	=2
4c#	7	8c#L	8eL	4b
.	.	8dJ	8f#J	.
4C#	#6\	4e	4g	4a#X
4D	6	8dL	4f#	4b
.	.	8c#J	.	.
4E	6 5	8BL	4g	4cc#
.	.	8A#XJ	.	.
=3	=3	=3	=3	=3
8F#L	6 4	8BL	4f#	4dd
8EJ	.	8c#J	.	.
4F#	5 #	4A#X	8f#L	4cc#
.	.	.	8eJ	.
4BB;	.	4B;	4d;	4b;
4E	#	4G#X	4e	4b
=4	=4	=4	=4	=4
4AA	.	4An	8eL	4cc#
.	.	.	8f#J	.
4A	.	4e	4g	4cc#
8dL	.	8dL	4f#	4ff#
8c#	.	8eJ	.	.
8B	4 2	4f#	4cc#	4ee
8A#XJ	.	.	.	.
=	=	=	=	=
4B	9	4.f#	8cc#L	2dd
.	.	.	8a#XJ	.
4BB	8	.	4b	.
.	.	8e#X	.	.
4F#;	#	4f#;	4a#;	4cc#;
=5:|!	=5:|!	=5:|!	=5:|!	=5:|!
4D	nr5	4f#	4an	4ff#
=6	=6	=6	=6	=6
!!linebreak:original
4E	4	4B	8aL	4ee
.	#	.	8g#XJ	.
8F#L	6	8f#L	8aL	4dd
8G#XJ	.	8eJ	8bJ	.
4A	.	8eL	4a	4cc#
.	.	8dJ	.	.
4A#X	7 3	4c#	8gnL	4ee
.	6 5	.	8f#J	.
=7	=7	=7	=7	=7
4B	9	8c#L	4f#	4dd
.	8	8BJ	.	.
4F#	4	8BL	4f#	4cc#
.	#	8A#XJ	.	.
4BB;	.	4d;	4f#;	4b;
4B	5	4B	8f#L	4dd
.	#6\	.	8g#XJ	.
=8	=8	=8	=8	=8
8AnL	.	4e	4a	4cc#
8G#X	.	.	.	.
8F#	6 4 #2|	8dL	4g#X	4b
8E#XJ	6 5	8c#J	.	.
4.F#	.	8c#L	4f#	8aL
.	.	8BJ	.	8g#XJ
.	.	8AL	4c#	8f#L
8En	.	8G#XJ	.	8g#J
=9	=9	=9	=9	=9
8DL	.	8F#L	4f#	4a
8C#J	.	8AJ	.	.
4BB	#6\	4d	4g#X	4b
4AA;	.	4e;	4a;	4cc#;
4A	8	4e	8aL	4cc#
.	7	.	8gnJ	.
=10	=10	=10	=10	=10
!!pagebreak:original
4B	5	8dL	8f#L	4dd
.	6	8gJ	8bJ	.
4c#	6 5	8f#L	8aL	4ee
.	.	8eJ	8gJ	.
8dL	.	4d	[2f#	4.ff#
8c#J	.	.	.	.
8BL	5 4 2	[4c#	.	.
8A#XJ	.	.	.	8ee
=11	=11	=11	=11	=11
8BL	.	8c#L]	4f#]	4dd
8AnJ	.	8F#J	.	.
8GL	6	4B	8eL	8eeL
8F#J	6 4	.	8f#J	8ddJ
4E	6 5	4B	4g	2cc#
4F#	#	4A#X	8f#L	.
.	.	.	8eJ	.
=12	=12	=12	=12	=12
2.BB;	.	2.F#;	2.d#X;	2.b;
=||	=||	=||	=||	=||
*-	*-	*-	*-	*-
!!!system-decoration: s1,s2,s3,s4
